X: 242
T: Miss Maxwell Gordon's Reel
B: John Pringle "Collection of Reels Strathspeys & Jigs", 1801 p.24#2
Z: 2011 John Chambers <jc:trillian.mit.edu>
R: reel
M: C|
L: 1/8
K: D
V: 1
G |\
F>GAF D/D/D DF | EA,CE AGFE |\
FGAF D/D/D DF | EA,CE D3 :|\
G |\
FGAF dcBA | ^GEGB edcB |
cdec A/A/A Ac | BE^GB A2AB/c/ |\
dAGF GBcd | edcB AGFE |\
FGAF D/D/D DF | EA,CE D3 |]
V: 2 clef=bass middle=d
z | d2A2 F2D2 | A2A2 c2A2 | d2A2D2D2 | A2A2 D3 :|
z | d2d2 f2d2 | e2^g2 b2g2 | a2e2 A2z2 | e2e2 c2A2 |
    d2d2 g2^g2 | a2a2 f2d2 | d2A2 G2D2 | A2A2 D3 |]

%%sep 2 1 500

